!!!!SEGMENT: pl-cz--iii-257--010_gotschalk-filip--requiem-in-b-agnus-dei.krn
!!!cenid: 18xx:113
!!!COM: Gotschalk, Filip
!!!COM-rismid: pe30020320
!!!CDT: 1760-1809
!!!CNT:
!!!OPR: Requiem in B
!!!OTL: Agnus Dei
!!!OMV: 010
!!!PDT:
!!!AGN: Sacred; Requiem
!!!SMS-siglum: PL-CZ
!!!SMS-shelfmark: III-257
!!!SMS-shelfwork: 001-010 M
!!!NIFC-rismid:
!!!URL-scan: http://repozytorium.nifc.pl/skany/pl-cz-nut--iii-256
!!!ONB-nifc:
!!!key:
**kern	**fb	**kern	**text	**kern	**text	**kern	**text	**kern	**text	**kern	**kern	**dynam	**kern	**kern
*part9	*	*part8	*part8	*part7	*part7	*part6	*part6	*part5	*part5	*part4	*part3	*part3	*part2	*part1
*staff9	*	*staff8	*staff8	*staff7	*staff7	*staff6	*staff6	*staff5	*staff5	*staff4	*staff3	*	*staff2	*staff1
*Iorgan	*	*Ibass	*	*Itenor	*	*Ialto	*	*Ivox	*	*Ivioln	*Ivioln	*	*Iclars	*Iclars
*I"Organo	*	*I"Basso	*	*I"Tenore	*	*I"Alto	*	*I"Canto	*	*I"Violino Secondo	*I"Violino Primo	*	*I"Clarinetto Secondo	*I"Clarinetto Primo
*I'Org	*	*I'B	*	*I'T	*	*I'A	*	*I'C	*	*I'Vln II	*I'Vln I	*	*I'Cl II	*I'Cl I
*clefF4	*	*clefF4	*	*clefC4	*	*clefC3	*	*clefC1	*	*clefG2	*clefG2	*	*clefG2	*clefG2
*k[b-e-a-]	*	*k[b-e-a-]	*	*k[b-e-a-]	*	*k[b-e-a-]	*	*k[b-e-a-]	*	*k[b-e-a-]	*k[b-e-a-]	*	*k[b-e-a-]	*k[b-e-a-]
*E-:	*	*E-:	*	*E-:	*	*E-:	*	*E-:	*	*E-:	*E-:	*	*E-:	*E-:
*M4/4	*	*M4/4	*	*M4/4	*	*M4/4	*	*M4/4	*	*M4/4	*M4/4	*	*M4/4	*M4/4
*met(c)	*	*met(c)	*	*met(c)	*	*met(c)	*	*met(c)	*	*met(c)	*met(c)	*	*met(c)	*met(c)
=1	=1	=1	=1	=1	=1	=1	=1	=1	=1	=1	=1	=1	=1	=1
!LO:TX:a:t=problem:solo być może do taktu 6.	!	!	!	!	!	!	!	!	!	!	!	!	!	!
!LO:TX:a:t=problem:niewyraźny zapis artykulacji w t.1-4	!	!	!	!	!	!	!	!	!	!	!	!	!	!
!LO:TX:a:t=Tutti	!	!	!	!	!	!	!	!	!	!	!	!	!	!LO:TX:a:t=problem:wszystkie nuty w utworze mają laseczki z prawej strony
!LO:TX:b:t=Solo	!	!	!	!	!	!	!	!	!	!	!	!	!	!LO:TX:a:B:t=Adagio
8.E-`L	.	1r	.	1r	.	1r	.	1r	.	1r	1r	.	1r	1r
16G`Jk	.	.	.	.	.	.	.	.	.	.	.	.	.	.
16.B-`LL	.	.	.	.	.	.	.	.	.	.	.	.	.	.
32G`K	.	.	.	.	.	.	.	.	.	.	.	.	.	.
16.B-`	.	.	.	.	.	.	.	.	.	.	.	.	.	.
32G`JJk	.	.	.	.	.	.	.	.	.	.	.	.	.	.
8.E-`L	.	.	.	.	.	.	.	.	.	.	.	.	.	.
16e-`Jk	.	.	.	.	.	.	.	.	.	.	.	.	.	.
16.B-'LL	.	.	.	.	.	.	.	.	.	.	.	.	.	.
32G'K	.	.	.	.	.	.	.	.	.	.	.	.	.	.
16.B-'	.	.	.	.	.	.	.	.	.	.	.	.	.	.
32G'JJk	.	.	.	.	.	.	.	.	.	.	.	.	.	.
=2	=2	=2	=2	=2	=2	=2	=2	=2	=2	=2	=2	=2	=2	=2
8E-'L	.	2r	.	1r	.	1r	.	1r	.	1r	1r	.	1r	1r
16E-'L	.	.	.	.	.	.	.	.	.	.	.	.	.	.
16F'JJ	.	.	.	.	.	.	.	.	.	.	.	.	.	.
4E-'	.	.	.	.	.	.	.	.	.	.	.	.	.	.
!	!	!LO:TX:a:t=Solo	!	!	!	!	!	!	!	!	!	!	!	!
2r	.	8.E-/	A-	.	.	.	.	.	.	.	.	.	.	.
.	.	16E-/	-gnus	.	.	.	.	.	.	.	.	.	.	.
.	.	8.E-	A-	.	.	.	.	.	.	.	.	.	.	.
.	.	32FLLL	-gnus	.	.	.	.	.	.	.	.	.	.	.
.	.	32GJJJ	.	.	.	.	.	.	.	.	.	.	.	.
=3	=3	=3	=3	=3	=3	=3	=3	=3	=3	=3	=3	=3	=3	=3
2r	.	8A-	De-	1r	.	1r	.	1r	.	1r	1r	.	1r	1r
.	.	8A-	-i.	.	.	.	.	.	.	.	.	.	.	.
.	.	4r	.	.	.	.	.	.	.	.	.	.	.	.
8.A-`L	.	2r	.	.	.	.	.	.	.	.	.	.	.	.
16E-'Jk	.	.	.	.	.	.	.	.	.	.	.	.	.	.
16.c'LL	.	.	.	.	.	.	.	.	.	.	.	.	.	.
32A-'K	.	.	.	.	.	.	.	.	.	.	.	.	.	.
16.c'	.	.	.	.	.	.	.	.	.	.	.	.	.	.
32A-'JJk	.	.	.	.	.	.	.	.	.	.	.	.	.	.
!LO:LB:g=original	!	!	!	!	!	!	!	!	!	!	!	!	!	!
=4	=4	=4	=4	=4	=4	=4	=4	=4	=4	=4	=4	=4	=4	=4
8.e-`L	.	1r	.	1r	.	1r	.	1r	.	1r	1r	.	1r	1r
16c`Jk	.	.	.	.	.	.	.	.	.	.	.	.	.	.
16.e-`LL	.	.	.	.	.	.	.	.	.	.	.	.	.	.
32c`K	.	.	.	.	.	.	.	.	.	.	.	.	.	.
16.e-`	.	.	.	.	.	.	.	.	.	.	.	.	.	.
32c`JJk	.	.	.	.	.	.	.	.	.	.	.	.	.	.
8A-`L	.	.	.	.	.	.	.	.	.	.	.	.	.	.
16A-`L	.	.	.	.	.	.	.	.	.	.	.	.	.	.
16B-`JJ	.	.	.	.	.	.	.	.	.	.	.	.	.	.
4A-`	.	.	.	.	.	.	.	.	.	.	.	.	.	.
=5	=5	=5	=5	=5	=5	=5	=5	=5	=5	=5	=5	=5	=5	=5
1r	.	8A-	A-	1r	.	1r	.	1r	.	1r	1r	.	1r	1r
.	.	8A-	-gnus	.	.	.	.	.	.	.	.	.	.	.
!	!	!LO:LB:g=original	!	!	!	!	!	!	!	!	!	!	!	!
.	.	8c	De-	.	.	.	.	.	.	.	.	.	.	.
.	.	16A-	-i	.	.	.	.	.	.	.	.	.	.	.
.	.	16A-	qui	.	.	.	.	.	.	.	.	.	.	.
.	.	8e-	tol-	.	.	.	.	.	.	.	.	.	.	.
.	.	16c	-lis	.	.	.	.	.	.	.	.	.	.	.
.	.	16A-	pec-	.	.	.	.	.	.	.	.	.	.	.
.	.	8G	-ca-	.	.	.	.	.	.	.	.	.	.	.
.	.	8E-	-ta	.	.	.	.	.	.	.	.	.	.	.
=6	=6	=6	=6	=6	=6	=6	=6	=6	=6	=6	=6	=6	=6	=6
2r	.	8A-	mun-	2r	.	2r	.	2r	.	2r	2r	.	1r	1r
.	.	8A-	-di	.	.	.	.	.	.	.	.	.	.	.
.	.	4r	.	.	.	.	.	.	.	.	.	.	.	.
!	!	!	!	!LO:TX:a:t=Tutti	!	!LO:TX:a:t=Tutti	!	!	!	!	!	!	!	!
8A-L	4_ 2_	4B-	Do-	4A-	Do-	4f	Do-	4dd	Do-	8fL	4dd	f	.	.
8B-	.	.	.	.	.	.	.	.	.	8a-	.	.	.	.
8A-	x	4B-	-na	4A-	-na	4f	-na	4dd	-na	8f	4dd	.	.	.
8B-J	.	.	.	.	.	.	.	.	.	8a-J	.	.	.	.
=7	=7	=7	=7	=7	=7	=7	=7	=7	=7	=7	=7	=7	=7	=7
8GL	6	4E-	e-	4B-	e-	4g	e-	4ee-	e-	8gL	4ee-	.	4r	4r
8B-	.	.	.	.	.	.	.	.	.	8b-J	.	.	.	.
!LO:SIC:s=8e	!	!	!	!	!	!	!	!	!	!	!	!	!	!
8E- 8G	.	4G	-is	4e-	-is	4g	-is	4b-	-is	8e-L	4b-	.	4gg	4bb-
8B-J	.	.	.	.	.	.	.	.	.	8gJ	.	.	.	.
.	.	.	.	.	.	.	.	.	.	.	8qqb-/	.	.	.
*	*	*2\right	*	*2\right	*	*2\right	*	*	*	*	*	*	*2\right	*2\right
!	!	!LO:LB:g=original	!	!	!	!	!	!	!	!	!	!	!	!
8DL	6 5	4F	re-	4.d	Re-	4.f	Re-	4.a-	re-	8fL	4.a-	.	2ff	2aa-
8B-	.	.	.	.	.	.	.	.	.	8d	.	.	.	.
8D	.	4BB-	-qui-	.	.	.	.	.	.	8f	.	.	.	.
8B-J	.	.	.	8d	-qui-	8f	-qui-	8a-	-qui-	8dJ	8a-	.	.	.
!	!	!	!	!	!	!	!	!	!	!LO:LB:g=original	!	!	!	!
=8	=8	=8	=8	=8	=8	=8	=8	=8	=8	=8	=8	=8	=8	=8
8E-L	.	2E-	-em	2e-	-em	2e-	-em	4g	-em	4e-	4g	.	4ee-	4gg
8G	.	.	.	.	.	.	.	.	.	.	.	.	.	.
8B-	.	.	.	.	.	.	.	4r	.	4r	4r	.	4r	4r
8E-J	.	.	.	.	.	.	.	.	.	.	.	.	.	.
.	.	.	.	.	.	.	.	.	.	.	(8qqeen/	.	.	.
8DL	6_	4B-	do-	4B-	Do-	4b-	Do-	4ff	do-	8b-L	4ff)	.	2r	2r
8B-	.	.	.	.	.	.	.	.	.	8b-	.	.	.	.
8D	x	4B-	-na	4B-	-na	4b-	-na	4ff	-na	8b-	4ff	.	.	.
8B-J	.	.	.	.	.	.	.	.	.	8b-J	.	.	.	.
!LO:LB:g=original	!	!	!	!	!	!LO:LB:g=original	!	!LO:LB:g=original	!	!	!LO:LB:g=original	!	!	!
=9	=9	=9	=9	=9	=9	=9	=9	=9	=9	=9	=9	=9	=9	=9
8E-L	.	4E-	e-	4B-	e-	4b-	e-	4gg	e-	4b-/	4gg	.	4r	4r
8B-	.	.	.	.	.	.	.	.	.	.	.	.	.	.
8G	6	4G	-is	4B-	-is	4g	-is	4ee-	-is	4g	4ee-	.	4b-	4ee-
8E-J	.	.	.	.	.	.	.	.	.	.	.	.	.	.
!	!	!	!	!LO:LB:g=original	!	!	!	!	!	!	!	!	!	!
8DL	6	4B-	do-	4B-	do-	4b-	do-	4ff	Do-	8a-L	4ff	.	2b-	2ff
8B-	.	.	.	.	.	.	.	.	.	8b-	.	.	.	.
8D	.	4B-	-na	4B-	-na	4b-	-na	4ff	-na	8a-	4ff	.	.	.
8B-J	.	.	.	.	.	.	.	.	.	8b-J	.	.	.	.
=10	=10	=10	=10	=10	=10	=10	=10	=10	=10	=10	=10	=10	=10	=10
8E-L	.	4E-	e-	4B-	e-	4b-	e-	4gg	e-	4b-/	4gg	.	4b-/	4gg
8B-	.	.	.	.	.	.	.	.	.	.	.	.	.	.
8G	6	4G	-is	4B-	-is	4g	-is	4ee-	-is	4g	4ee-	.	4g	4ee-
8E-J	.	.	.	.	.	.	.	.	.	.	.	.	.	.
8A-L	6 5	4A-	re-	4c	Re-	4g	re-	4ee-	Re-	2f	4ee-	.	(<4f	4ee-
8A-	.	.	.	.	.	.	.	.	.	.	.	.	.	.
8B-	.	4B-	-qui-	4B-	-qui-	4f	-qui-	4dd	-qui-	.	4dd	.	4f)	4dd
8B-J	.	.	.	.	.	.	.	.	.	.	.	.	.	.
=11	=11	=11	=11	=11	=11	=11	=11	=11	=11	=11	=11	=11	=11	=11
*	*	*	*	*	*	*	*	*2\right	*	*	*2\right	*	*	*
8E-L	.	2E-	-em.	2B-	-em.	2g	-em	2ee-	-em.	2g	2ee-	.	2g	2ee-
8E-J	.	.	.	.	.	.	.	.	.	.	.	.	.	.
4E-	.	.	.	.	.	.	.	.	.	.	.	.	.	.
!	!	!	!	!	!	!LO:TX:a:t=Solo	!	!	!	!	!	!	!	!
2r	.	2r	.	2r	.	8e-	Ag-	2r	.	2r	2r	.	2r	2r
.	.	.	.	.	.	8e-	-nus	.	.	.	.	.	.	.
.	.	.	.	.	.	8e-	Ag-	.	.	.	.	.	.	.
.	.	.	.	.	.	16fLL	-nus	.	.	.	.	.	.	.
.	.	.	.	.	.	16gJJ	.	.	.	.	.	.	.	.
!	!	!	!	!	!	!	!	!	!	!	!	!	!LO:LB:g=original	!LO:LB:g=original
=12	=12	=12	=12	=12	=12	=12	=12	=12	=12	=12	=12	=12	=12	=12
2r	.	1r	.	1r	.	8a-	De-	1r	.	1r	1r	.	1r	1r
.	.	.	.	.	.	8a-	-i.	.	.	.	.	.	.	.
.	.	.	.	.	.	4r	.	.	.	.	.	.	.	.
8.A-`L	.	.	.	.	.	2r	.	.	.	.	.	.	.	.
16A-`Jk	.	.	.	.	.	.	.	.	.	.	.	.	.	.
16.c`LL	.	.	.	.	.	.	.	.	.	.	.	.	.	.
32A-`K	.	.	.	.	.	.	.	.	.	.	.	.	.	.
16.c`	.	.	.	.	.	.	.	.	.	.	.	.	.	.
32A-`JJk	.	.	.	.	.	.	.	.	.	.	.	.	.	.
!	!	!	!	!	!	!LO:LB:g=original	!	!	!	!	!	!	!	!
=13	=13	=13	=13	=13	=13	=13	=13	=13	=13	=13	=13	=13	=13	=13
8.e-`L	.	1r	.	1r	.	1r	.	1r	.	1r	1r	.	1r	1r
16c`Jk	.	.	.	.	.	.	.	.	.	.	.	.	.	.
16.e-`LL	.	.	.	.	.	.	.	.	.	.	.	.	.	.
32c`K	.	.	.	.	.	.	.	.	.	.	.	.	.	.
16.e-`	.	.	.	.	.	.	.	.	.	.	.	.	.	.
32c`JJk	.	.	.	.	.	.	.	.	.	.	.	.	.	.
8A-`L	.	.	.	.	.	.	.	.	.	.	.	.	.	.
8A-`J	.	.	.	.	.	.	.	.	.	.	.	.	.	.
4A-`	.	.	.	.	.	.	.	.	.	.	.	.	.	.
!LO:LB:g=original	!	!	!	!	!	!	!	!	!	!	!	!	!	!
=14	=14	=14	=14	=14	=14	=14	=14	=14	=14	=14	=14	=14	=14	=14
1r	.	1r	.	1r	.	8a-	Ag-	1r	.	1r	1r	.	1r	1r
.	.	.	.	.	.	8a-	-nus	.	.	.	.	.	.	.
.	.	.	.	.	.	8cc	De-	.	.	.	.	.	.	.
.	.	.	.	.	.	16a-	-i	.	.	.	.	.	.	.
.	.	.	.	.	.	16a-	qui	.	.	.	.	.	.	.
.	.	.	.	.	.	8ee-	tol-	.	.	.	.	.	.	.
.	.	.	.	.	.	16cc	-lis	.	.	.	.	.	.	.
.	.	.	.	.	.	16a-	pec-	.	.	.	.	.	.	.
.	.	.	.	.	.	8g	-ca-	.	.	.	.	.	.	.
.	.	.	.	.	.	8e-	-ta	.	.	.	.	.	.	.
!	!	!LO:LB:g=original	!	!	!	!	!	!	!	!	!	!	!	!
=15	=15	=15	=15	=15	=15	=15	=15	=15	=15	=15	=15	=15	=15	=15
2r	.	2r	.	2r	.	8a-	mun-	2r	.	2r	2r	.	1r	1r
.	.	.	.	.	.	8a-	-di	.	.	.	.	.	.	.
.	.	.	.	.	.	4r	.	.	.	.	.	.	.	.
!	!	!	!	!LO:TX:a:t=Tutti	!	!LO:TX:a:t=Tutti	!	!	!	!	!	!	!	!
8BB-L/	3 7	4B-	do-	4A-	do-	4f	do-	4dd	Do-	8a-L	4dd	f	.	.
8D	.	.	.	.	.	.	.	.	.	8b-	.	.	.	.
8F	.	4B-	-na	4A-	-na	4f	-na	4dd	-na	8a-	4dd	.	.	.
8B-J	.	.	.	.	.	.	.	.	.	8b-J	.	.	.	.
!	!	!	!	!LO:LB:g=original	!	!LO:LB:g=original	!	!	!	!LO:LB:g=original	!	!	!	!
=16	=16	=16	=16	=16	=16	=16	=16	=16	=16	=16	=16	=16	=16	=16
8E-L	.	4E-	e-	4B-	e-	4g	e-	4ee-	e-	8gL	4ee-	.	4r	4r
8B-	.	.	.	.	.	.	.	.	.	8b-	.	.	.	.
8G	.	4E-	-is	4e-	-is	4g	-is	4b-	-is	8e-	4b-	.	4gg	4bb-
8E-J	.	.	.	.	.	.	.	.	.	8gJ	.	.	.	.
!	!	!	!	!	!	!	!	!	!	!	!LO:LB:g=original	!	!	!
.	.	.	.	.	.	.	.	.	.	.	8qqb-/	.	.	.
8DL	.6_ 5_	4.B-	Re-	4.d	Re-	4.f	re-	4.a-	Do-	4.f	4.a-	.	2ff	2aa-
8B-	.	.	.	.	.	.	.	.	.	.	.	.	.	.
8D	x	.	.	.	.	.	.	.	.	.	.	.	.	.
8B-J	.	8B-	-qui-	8d	-qui-	8f	-qui-	8a-	-mi-	8f	8a-	.	.	.
!	!	!	!	!	!	!	!	!LO:LB:g=original	!	!	!	!	!	!
=17	=17	=17	=17	=17	=17	=17	=17	=17	=17	=17	=17	=17	=17	=17
8E-L	.	2E-	-em	2e-	-em	2b-	-em	4g/	-ne	4e-	4g	.	4ee-	4gg
8B-	.	.	.	.	.	.	.	.	.	.	.	.	.	.
8G	.	.	.	.	.	.	.	4g/	.	4r	4r	.	4r	4r
8E-J	.	.	.	.	.	.	.	.	.	.	.	.	.	.
8DL	6	4.B-	sem-	4.d	Sem-	4.a-	sem-	4ff	sem-	4d 4b-	4ff	.	2r	2r
8B-	.	.	.	.	.	.	.	.	.	.	.	.	.	.
8D	.	.	.	.	.	.	.	4ff	-pi-	4d 4b-	4ff	.	.	.
8B-J	.	8B-	-pi-	8d	-pi-	8a-	-pi-	.	.	.	.	.	.	.
!LO:LB:g=original	!	!	!	!	!	!	!	!	!	!	!	!	!	!
=18	=18	=18	=18	=18	=18	=18	=18	=18	=18	=18	=18	=18	=18	=18
8E-L	.	8E-L	-ter-	4e-	-ter-	4b-	-ter-	4gg	-ter-	4b-/	4gg	.	4r	4r
8F	.	8FJ	.	.	.	.	.	.	.	.	.	.	.	.
8G	.	8GL	-nam	4B-	-nam	4g	-nam	4ee-	-nam	4g	4ee-	.	4b-	4ee-
8E-J	.	8E-J	.	.	.	.	.	.	.	.	.	.	.	.
.	.	.	.	.	.	.	.	.	.	.	8qqee-/	.	.	.
8B-L\	6 4	4.B-	sem-	4.A-	sem-	4.a-	sem-	4.dd	sem-	4.f	4.dd	.	4b-	4.dd
8B-\	.	.	.	.	.	.	.	.	.	.	.	.	.	.
8BB-/	5 3	.	.	.	.	.	.	.	.	.	.	.	4b-	.
8BB-J/	.	8B-	-pi-	8A-	-pi-	8a-	-pi-	8dd	-pi-	8f	8dd	.	.	8dd
!	!	!	!	!LO:LB:g=original	!	!	!	!	!	!	!	!	!	!
=19	=19	=19	=19	=19	=19	=19	=19	=19	=19	=19	=19	=19	=19	=19
8E-L	.	8E-	-ter-	8B-	-ter-	8g	-ter-	8ee-	-ter-	8gL	8ee-L	.	8gL	8ee-L
8E-J	.	8E-	-nam	8B-	-nam	8g	-nam	8ee-	-nam	8gJ	8ee-J	.	8gJ	8ee-J
4r	.	4r	.	4r	.	4r	.	4r	.	4r	4r	.	4r	4r
2r	.	2r	.	2r	.	2r	.	2r	.	2r	2r	.	2r	2r
==	==	==	==	==	==	==	==	==	==	==	==	==	==	==
*-	*-	*-	*-	*-	*-	*-	*-	*-	*-	*-	*-	*-	*-	*-
!!!system-decoration: s1,s2,s3,s4,s5,s6,s7,s8,s9
!!!RDF**kern: < = below
!!!AIN: 1 alto 1 bass 2 clars 1 organ 1 tenor 2 violn 1 vox
!!!ENC: Anna Matuszewska
!!!END: 2020-03-27
